X:1
T:James Gibb editions
T:Deep lamenting - Morley
T:#
%%score [ 1 2 3 ]
L:1/8
Q:1/4=120
M:4/4
K:C
V:1 treble nm="Soprano" snm="S"
V:2 treble nm="Alto" snm="A"
V:3 bass nm="Bass" snm="B"
V:1
"^Deep lamenting""^Thomas Morley\n(1557-1602)" z8 | d8- | d4 B4 | B8 | G8- | G4 c4- | %6
w: |Deep|* la-|ment-|ing,|* grief,|
 c2 (B2 A2 G2 | A2 B2) (c4- | c2 BA B4) |[M:3/2] c4 B6 A2 | G4 ^F8 |[M:4/4] d8- | d4 c4 | (B4 A4) | %14
w: * be\- * *|* * wray\-||ing; grief he-|wray- ing;|Poor|* A-|min\- *|
 G4 E4 | ^F4 G4- | G2 E2 (A4- | A2 G2 G4- |[M:4/4] G4 ^F4) | G4 z2 d2 | dcBA G2 G2 | c3 d e4 | %22
w: tas thus|sat, thus|* sat say\-|||ing: Glut|now, now glut thine eyes, glut|now thine eyes|
 d2 G2 B3 c | d2 B2 A4 | B8 | z4 G4- | G2 G2 G4 | c6 B2 | A2 G2 ^F2 G2 | (A2 Bc d2 B2) | A4 f4- | %31
w: full, while I lie|here a- dy-|ing;|killed|* with dis-|dain, a-|las, and pi- ty,|pi\- * * * *|ty, and|
 f4 e4- | e2 d2 (d4- | d4 ^c4) | d8 | z8 | z8 | z8 | d4 B2 c2- | cB A2 (BcdB | cB BA/G/ A2) A2 | %41
w: * pi\-|* ty cry\-||ing;||||Now, now mayst|* thou laugh full * * *|* * * * * mer- ri-|
 B2 d2 d4- | d2 c2 B2 A2 | G4 c4 | c2 B2 A2 G2 | ^F2 G2 G2 F2 | G8 | z4 G4- | G4 ^G4 | A4 E4 | F8 | %51
w: ly; for dead|* lo is the|man, dead|is thy mor- tal,|mor- tal e- ne-|my.|O|* no,|no, no,|weep|
 E4 A4- | A4 A4 | ^c4 c4 | (d6 c2 | B2 A2 _B4) | A2 A2 (d4- | d2 ^cB c4) | d4 A4 | B2 A2 B2 c2 | %60
w: not, O|* no,|no, O|weep *||not, O weep||not; I|can, I can- not|
 d4 B2 (d2 | cB BA/G/) A4 | G2 z2 z4 | A2 d4 ^c2 | d2 B2 A4 | B8 | z2 G4 G2 | c4 A2 d2- | %68
w: bide this blind\-||ness;|I can- not|bide this blind-|ness;|All too|late, too late|
 d2 c4 B2 | c2 e3 d c2 | B2 A2 (A2 ^G2) | A4 z2 A2- | AG F2 E2 D2 | ^C2 !courtesy!=c3 B A2 | %74
w: * now God|wot, all too late|comes this kind\- *|ness; all|* too late now God|wot, all too late,|
 G2 F2 E2 A2- | AG F2 E2 D2 | C2 D2 E4 | ^F4 z2 A2 | c6 c2 | B2 G2 B4 | A4 z2 d2- | d2 A2 B4 | %82
w: all too late, all|* too late now comes|this your kind-|ness. But|if you|would that death|should, death|* of life,|
 G2 G4 A2 | ^F2 (G4 F2) | G8 | z8 | d8- | d4 c2 _B2 | A4 A2 =B2 | c2 (dc BA G2) | (A2 B2) c4 | %91
w: of life should|de- prive *|me;||Weep|* not a-|las, weep not|lest you * * * *|re\- * vive|
 B2 d4 e2 | c2 d3 (c B2) | A4 G2 A2- | A2 ^F4 G2- | G(^F- FE/D/) E4 | ^F2 G2 (G2 F2) | G8 | z8 | %99
w: me, weep not|lest you there\- *|by, lest you|* there- by|* re\- * * * vive|me, re- vive *|me,||
 z2 G4 A2 | ^F2 (G4 F2) | G2 d2 d2 c2 | B2 AG A4 | G2 c2 B (A B2) | c4 G4 | G2 c2 B2 (A2- | %106
w: there- by|re- vive *|me. Ah cease, ah|cease to be- wail|me, cease to be\- *|wail me,|cease to be wail|
 AG G3 ^F/E/ F2) | G4 z4 | d4 d2[Q:1/4=119] c2 | %109
w: |me,|my life, my|
[Q:1/4=117] B2[Q:1/4=116] A[Q:1/4=115]G[Q:1/4=114] A2[Q:1/4=113] A2 | %110
w: life now doth fail, my|
[Q:1/4=112] G2[Q:1/4=110] ^F[Q:1/4=110]E[Q:1/4=108] F4 |[Q:1/4=105] G4[Q:1/4=103] z4 |] %112
w: life now doth fail|me.|
V:2
 D8- | D4 B,4 | B,8 | G,8- | G,4 C4- | C2 D2 E4 | A,4 F4- | F2 (E2 E2 DC) | D8 |[M:3/2] E4 D6 A,2 | %10
w: Deep|* la-|ment-|ing,|* grief|* be- wray-|ing; grief|* be\- * * *|wray-|ing; grief be-|
 B,4 A,4 D4- |[M:4/4] D4 C4 | B,4 E4- | E2 D2 (D4- | D4 ^C4) | D8 | C8- | C4 B,4 |[M:4/4] A,8 | %19
w: wray- ing; all|* for-|lorn Poor|* A- min\-||tas|thus|* sat|say-|
 B,2 G,2 G,A,B,C | D4 z2 G2 | GFED C2 E,2 | B,3 C D4 | G,2 (G4 ^F2) | G4 D4- | D2 D2 D4 | E6 D2 | %27
w: ing: Glut now, now glut thine|eyes, glut|now, now glut thine eyes, while|I lie here|a- dy\- *|ing. killed|* with dis-|dain a-|
 C2 B,2 (A,2 B,C | D2 B,2) A,2 G,2 | ^F,2 G,2 F,2 G,2 | ^F,4 D4- | D4 C4 | F8 | E8 | D4 D4 | %35
w: las and pi\- * *|* * ty, pi-|ty, pi- ty, pi-|ty, and|* pi-|ty|cry-|ing. Now,|
 B,2 C3 B, A,2 | (B,CDB, C2 B,2) | A,2 (G,2 A,4) | G,2 G4 E2 | F3 E D4 | (E^F) (G2- GF/E/ F2) | %41
w: now mayst thou laugh|full * * * * *|mer- ri\- *|ly, now, now|mayst thou laugh|mer\- * ri\- * * * *|
 G4 z4 | G4 G4- | G2 F2 E2 D2 | C2 D3 C B,2 | A,2 G,2 A,2 A,2 | B,8 | z4 B,4- | B,4 B,4 | A,8 | %50
w: ly;|for dead|* lo is the|man, dead is thy|mor- tal e- ne-|my.|O|* no,|no,|
 A,4 (D4- | D4 ^C2 B,2) | ^C4 E4- | E4 E4 | D8 | D4 G4- | G4 F4 | E8 | D8 | z2 D4 G2- | %60
w: no weep||not, O|* no,|no,|no weep|* not,|weep|not;|I can|
 G2 ^F2 G2 D2 | (E^F G3 F/E/ F2) | G2 D4 G2- | G2 ^F2 G2 (E2 | ^F2) (G4 F2) | G2 D4 D2 | G4 E4 | %67
w: * not bide this|blind\- * * * * *|ness; I can\-|* not bide this|* blind\- *|ness; All too|late now|
 E2 C4 F2- | F2 E2 D4 | C4 z2 E2- | ED C2 B,2 B,2 | A,2 A3 G F2 | E2 D2 (^C2 D2) | E2 A3 G F2 | %74
w: God wot, all|* too late|now, all|* too late, all too|late, all too late|comes this kind\- *|ness, all too late,|
 E2 D2 ^C2 F2- | FE D2 ^C2 D2 | E2 (D4 ^C2) | D2 D2 =F4- | F2 F2 E2 C2 | D2 E2 D2 G2- | %80
w: now too late, all|* too late comes this|your kind\- *|ness. But if|* you would that|death should of life|
 G2 ^F2 G2 D2 | z2 D2 (DCB,A, | B,2 G,4 C2- | C2 B,2 A,4 | G,4 D4- | D4 C2 _B,2 | A,6 G,2 | %87
w: * de- prive me,|of life, * * *|* of life|* de- prive|me; Weep|* not a-|las, weep|
 ^F,4 G,4- | G,4 ^F,4) | G,2 A,2 B,2 C2- | C2 D2 E2 ^F2 | G4 G4 | A2 ^F4 G2- | G2 ^F2 G2 E2 | %94
w: not, weep||not, lest you there-|* by re- vive|me, weep|not lest you|* there- by re-|
 D2 D4 (E2- | ^C2 D4) !>!C2 | D2 CB, A,G, A,2 | G,4 D4 | E2 C2 (D3 C | B,A, G,2) G,2 C2- | %100
w: vive me, re\-|* * vive|me, you a- gain re- vive|me; lest|you there- by, *|* * * there- by|
 C2 B,2 A,4 | B,4 z4 | z8 | z2 G2 G2 F2 | E2 DC D2 D2 | E4 D2 (C2- | CB, B,A,/G,/) A,4 | %107
w: * re- vive|me.||Ah cease, ah|cease to be- wail, ah|cease to be\-|* * * * * wail|
 G,2 D2 D2 C2 | B,2 A,G, A,2 A,2 | G,2 ^F,E, F,4 | G,4 z4 | z8 |] %112
w: me, my life, my|life now doth fail, my|life now doth fail|me.||
V:3
 z8 | z8 | G,8- | G,4 E,4 | E,8 | C,8 | F,6 E,2 | (F,2 G,2 A,4 | G,8) |[M:3/2] C,4 G,6 ^F,2 | %10
w: ||Deep|* la-|ment-|ing,|grief be-|wray\- * *||ing; grief be-|
 G,4 D,8 |[M:4/4] z8 | G,8- | G,4 F,4 | E,8 | D,4 B,,4 | C,8 | D,8- |[M:4/4] D,8 | G,,8 | %20
w: wray- ing;||Poor|* A-|min-|tas thus|sat|say\-||ing:|
 z2 G,2 G,F,E,D, | C,2 C,2 C,D,E,F, | G,4 z2 G,,2 | B,,3 C, D,4 | G,,4 G,4- | G,2 G,2 G,4 | %26
w: Glut now, now glut thine|eyes, glut now, now glut thine|eyes, while|I lie dy-|ing. killed|* with dis-|
 C6 B,2 | A,2 G,2 ^F,2 G,2 | D,8 | D,8 | D,8 | A,8 | A,8- | A,8 | D,4 z2 G,2- | G,2 E,2 F,3 E, | %36
w: dain, a-|las, and pi- ty|cry-|ing,|pi-|ty|cry\-||ing. Now,|* now mayst thou|
 D,4 (E,^F,G,E, | ^F,2) G,4 F,2 | G,4 z4 | z8 | z8 | z4 G,4 | G,6 F,2 | E,2 D,2 C,2 B,,2 | %44
w: laugh full * * *|* mer- ri-|ly,|||for|dead lo|is the man, dead|
 A,,2 G,,2 F,,2 G,,2 | D,4 D,4 | G,,4 G,4- | G,4 E,4 | E,8 | ^C,8 | D,8 | A,,8 | z4 A,4- | %53
w: is thy mor- tal|e- ne-|my. O|* no,|no,|no,|weep|not,|O|
 A,4 A,4 | ^F,4 F,4 | G,8 | D,8 | z8 | z4 D,4 | G,2 ^F,2 G,2 E,2 | D,4 G,,4 | z4 z2 D,2 | %62
w: * no,|no, no|weep|not;||I|can- not bide this|blind- ness;|I|
 G,2 ^F,2 G,2 E,2 | D,4 G,,2 A,,2 | D,8 | G,,4 z2 G,2- | G,2 G,2 C4 | A,4 F,4 | G,8 | %69
w: can- not bide this|blind- ness, this|blind-|ness; All|* too late,|all too|late|
 C,2 C3 B, A,2 | ^G,2 A,2 E,4 | z2 F,3 E, D,2 | ^C,2 D,2 A,,2 D,2 | A,4 A,4 | A,8 | A,,8 | A,,8 | %77
w: now, all too late,|all too late,|all too late|now, God wot, too|late comes|this|your|kind-|
 D,6 D,2 | A,6 A,2 | G,2 E,2 G,4 | D,4 B,,4 | D,4 G,,2 G,2 | (G,F,E,D, E,2) C,2 | D,8 | G,,8 | %85
w: ness. But|if you|would that death|should, that|death should of|life * * * * de-|prive|me;|
 G,8- | G,4 F,2 E,2 | D,8- | D,4 D,4 | E,2 ^F,2 G, (=F,E,D,) | C,2 B,,2 A,,4 | G,,8 | z8 | %93
w: Weep|* not a-|las,|* weep|not lest you a\- * *|gain re- vive|me,||
 D,4 E,2 C,2 | D,3 (C,B,,A,, G,,2) | A,,4 A,,4 | D,8 | G,,4 z2 G,2- | G,2 A,2 ^F,2 (G,2- | %99
w: weep not lest|you a\- * * *|gain re-|vive|me; lest|* you there- by|
 G,F,E,D, C,2) C,2 | D,8 | G,,8 | G,4 G,2 F,2 | E,2 D,C, D,2 D,2 | C,2 B,,A,, B,,4 | C,4 z4 | %106
w: * * * * * re-|vive|me.|Ah cease, ah|cease to be- wail, ah|cease to be- wail|me.|
 D,4 D,2 C,2 | B,,2 A,,G,, A,,2 A,,2 | G,,2 ^F,,E,, F,,4 | G,,4 z4 | z8 | z8 |] %112
w: my life, my|life now doth fail, my|life now doth fail|me.|||

